assets/icons/qvision/two_wheeler.svg

<svg xmlns="http://www.w3.org/2000/svg" enable-background="new 0 0 24 24" height="24" viewBox="0 0 24 24" width="24"><g><rect fill="none" fill-rule="evenodd" height="24" width="24" x="0" y="0"/><path d="M20,11c-0.18,0-0.36,0.03-0.53,0.05L17.41,9H20V6l-3.72,1.86L13.41,5H9v2h3.59l2,2H11l-4,2L5,9H0v2h4c-2.21,0-4,1.79-4,4 c0,2.21,1.79,4,4,4c2.21,0,4-1.79,4-4l2,2h3l3.49-6.1l1.01,1.01C16.59,12.64,16,13.75,16,15c0,2.21,1.79,4,4,4c2.21,0,4-1.79,4-4 C24,12.79,22.21,11,20,11z M4,17c-1.1,0-2-0.9-2-2c0-1.1,0.9-2,2-2c1.1,0,2,0.9,2,2C6,16.1,5.1,17,4,17z M20,17c-1.1,0-2-0.9-2-2 c0-1.1,0.9-2,2-2s2,0.9,2,2C22,16.1,21.1,17,20,17z"/></g></svg>

<svg width="24" height="24" viewBox="0 0 24 24" fill="none" xmlns="http://www.w3.org/2000/svg">
<g clip-path="url(#clip0_147_5678)">
<path d="M20 11C19.82 11 19.64 11.03 19.47 11.05L17.41 9H20V6L16.28 7.86L13.41 5H9V7H12.59L14.59 9H11L7 11L5 9H0V11H4C1.79 11 0 12.79 0 15C0 17.21 1.79 19 4 19C6.21 19 8 17.21 8 15L10 17H13L16.49 10.9L17.5 11.91C16.59 12.64 16 13.75 16 15C16 17.21 17.79 19 20 19C22.21 19 24 17.21 24 15C24 12.79 22.21 11 20 11ZM4 17C2.9 17 2 16.1 2 15C2 13.9 2.9 13 4 13C5.1 13 6 13.9 6 15C6 16.1 5.1 17 4 17ZM20 17C18.9 17 18 16.1 18 15C18 13.9 18.9 13 20 13C21.1 13 22 13.9 22 15C22 16.1 21.1 17 20 17Z" fill="#323232"/>
</g>
<defs>
<clipPath id="clip0_147_5678">
<rect width="24" height="24" fill="white"/>
</clipPath>
</defs>
</svg>
